!!!COM: Haydn, Franz Joseph
!!!OTL: String Quartet in G Minor
!!!OPS: Opus 20
!!!ONM: No. 3
!!!OMD: Allegro di molto
!!!OMV: 4
!!!SCT: H III:33
!!!SCA: Thematisch-bibliographisches Werkevererzeichnis (A. van Hoboken)
!!!YOR: Pleyel Edition, volume 3
!!!ENC: Frances Bennion
!!!CDT: 1732/3/31/-1809/5/31/
!!!CNT: Oesterreich
!!!YEC: Copyright (c) 1994, 2000 Center for Computer Assisted Research in the Humanities
!!!YEM: Rights to all derivative editions reserved.
!!!YEM: Refer to licensing agreement for further details.
!!!YEN: United States of America
**tshrm	**tsroot	**kern	**kern	**kern	**kern
*k[b-e-]	*k[b-e-]	*k[b-e-]	*k[b-e-]	*k[b-e-]	*k[b-e-]
*	*	*g:	*g:	*g:	*g:
*	*	*clefF4	*clefC3	*clefF	*clefF
*M4/4	*M4/4	*M4/4	*M4/4	*M4/4	*M4/4
.	G	2..r	2..r	2..r	2..r
.	D	8r	8r	8d	8r
=1	=1	=1	=1	=1	=1
.	D	8r	2r	4b-	2r
i	G	8G	.	.	.
.	G	8A	.	8a	.
.	G	8B-	.	8g	.
.	G	2c	2d	2f#	8r
V7c	D	.	.	.	8a
i	G	.	.	.	8a
Vb	D	.	.	.	8dd
=2	=2	=2	=2	=2	=2
Chr	E	4.B-	4.G	4g	16dd
.	E	.	.	.	16cc#
V	D	.	.	.	16dd
.	D	.	.	.	16cc#
V7	D	.	.	2.r	8dd
.	D	8B-	8d	.	8g
i	G	8A	8c	.	8f#
Vb	D	8G	8B-	.	8g
i	G	8F#	8A	.	8a
Vc	D	8E	8G	.	8b-
=3	=3	=3	=3	=3	=3
ib	G	4D	4F#	1r	8dd
V	D	.	.	.	8cc
V7d	D	2.r	2.r	.	8aa
ii	A	.	.	.	8g
.	A	.	.	.	8f#
.	r	.	.	.	8g
.	r	.	.	.	8a
.	r	.	.	.	8b-
=4	=4	=4	=4	=4	=4
.	D	1r	1r	4r	8dd
ib	G	.	.	.	8cc
.	G	.	.	4aa	4ccc
ib	G	.	.	4.r	2r
.	D	.	.	8d	.
=5	=5	=5	=5	=5	=5
.	D	8r	2r	4b-	2r
ib	G	8G	.	.	.
.	G	8A	.	8a	.
.	G	8B-	.	8g	.
.	G	2c	[2d	2f#	8r
V7d	D	.	.	.	8a
.	D	.	.	.	8a
.	D	.	.	.	8dd
=6	=6	=6	=6	=6	=6
.	D	2B-	4.d]	2g	16dd
.	D	.	.	.	16cc#
ib	G	.	.	.	16dd
.	G	.	.	.	16cc#
.	G	.	.	.	4dd
.	G	.	8G	.	.
.	G	2c	[2d	2f#	8r
.	G	.	.	.	8a
.	G	.	.	.	8a
.	G	.	.	.	8dd
=7	=7	=7	=7	=7	=7
.	G	4B-	4d]	4g	16dd
.	G	.	.	.	16cc#
.	G	.	.	.	16dd
.	G	.	.	.	16cc#
.	G	2.r	2.r	2.r	8dd
Dim	G	.	.	.	8gg
.	G	.	.	.	16gg
.	G	.	.	.	16ff#
V7b	D	.	.	.	16gg
.	r	.	.	.	16ff#
.	r	.	.	.	8gg
.	r	.	.	.	8bb-
=8	=8	=8	=8	=8	=8
.	C	4r	4r	4r	4bb-
.	G	4G	4e-	4b-	4cc#
ivb	C	4F#	4d	4cc	4aa
.	F	4r	4r	4r	8r
.	F	.	.	.	8cc
=9	=9	=9	=9	=9	=9
iv	C	4G	4d	4d	16b-
.	C	.	.	.	16a
Dim	G	.	.	.	16b-
.	G	.	.	.	16a
.	G	4r	4r	4r	8b-
V	D	.	.	.	8ee-
.	D	4C	4A-	4e-	16a-
.	D	.	.	.	16g
i	G	.	.	.	16a-
.	G	.	.	.	16g
.	G	4r	4r	4r	8a-
.	r	.	.	.	8cc
=10	=10	=10	=10	=10	=10
.	G	16D	16d	16d	16d
.	G	16C#	16c#	16c#	16c#
.	G	16D	16d	16d	16d
.	G	16C#	16c#	16c#	16c#
.	G	8D	8d	8d	8d
ii	A	8F#	8f#	8f#	8f#
ib	G	4GG	4G	4G	4G
.	D	4r	4r	4r	8r
.	D	.	.	.	8d
=11	=11	=11	=11	=11	=11
.	D	8r	2r	2r	4b-
ib	G	8G	.	.	.
.	G	8A	.	.	8a
*B-:	*B-:	*	*	*	*
iii	D	8B-	.	.	8g
.	r	2c	[2d	8r	2f#
.	G	.	.	8a	.
.	G	.	.	8a	.
.	r	.	.	8dd	.
=12	=12	=12	=12	=12	=12
.	G	4B-	4d]	16dd	4g
.	r	.	.	16cc#	.
iib	C	.	.	16dd	.
.	C	.	.	16cc#	.
.	C	2r	2r	4dd	2r
.	G	.	.	4.r	.
.	E-	8r	8r	.	8r
ib	B-	8B-	8b-	8b-	8b-
=13	=13	=13	=13	=13	=13
.	B-	4e-	4ee-	4ee-	4ee-
.	r	8B-	8b-	8b-	8b-
I	B-	8G	8g	8g	8g
.	B-	4E-	4e-	4e-	4e-
.	r	4D-	4d-	4d-	4d-
=14	=14	=14	=14	=14	=14
.	F	4C	4c	4c	4c
.	F	4BB-	4B-	4B-	4B-
.	F	2AA	4A	4A	4A
.	B-	.	4e-	4g-	4g-
=15	=15	=15	=15	=15	=15
.	B-	8A	2cc	16f	2ee-
.	B-	.	.	16e	.
V7d	F	8A	.	16f	.
.	F	.	.	16e	.
.	F	8A	.	8f	.
.	F	8A	.	8r	.
.	F	8B-	2b-	16f	2dd
.	r	.	.	16e	.
Ib	B-	8B-	.	16f	.
.	B-	.	.	16e	.
.	B-	8B-	.	8f	.
.	B-	8B-	.	8r	.
=16	=16	=16	=16	=16	=16
.	B-	8E-	2cc	16f	2aa
.	B-	.	.	16e	.
V7c/V	C	8E-	.	16f	.
.	C	.	.	16e	.
.	C	8E-	.	8f	.
.	C	8E-	.	8r	.
.	C	8D	2b-	16f	2bb-
.	C	.	.	16e	.
V	F	8D	.	16f	.
.	F	.	.	16e	.
.	F	8D	.	8f	.
.	r	8D	.	8r	.
=17	=17	=17	=17	=17	=17
.	F	8G	4g	16b-	2e
.	F	.	.	16a	.
Ib	B-	8G	.	16b-	.
.	B-	.	.	16a	.
.	B-	8G	4c	16b-	.
.	r	.	.	16dd	.
Vc	F	8G	.	16cc	.
.	F	.	.	16b-	.
I	B-	4F	4c	4a	4f
.	F	8r	4r	4r	4r
.	F	8F	.	.	.
=18	=18	=18	=18	=18	=18
.	F	4d	2r	8r	2r
I	B-	.	.	8B-	.
.	B-	8c	.	8c	.
.	B-	8B-	.	8d	.
.	B-	2A	[2f	2e-	8r
V7b	F	.	.	.	8cc
.	F	.	.	.	8cc
.	F	.	.	.	8ff
=19	=19	=19	=19	=19	=19
.	F	2B-	4.f]	2d	16ff
.	r	.	.	.	16ee
I	B-	.	.	.	16ff
.	B-	.	.	.	16ee
.	B-	.	.	.	4ff
.	B-	.	8b-	.	.
.	B-	2A	[2f	2e-	8r
V7c	F	.	.	.	8cc
.	F	.	.	.	8cc
.	F	.	.	.	8ff
=20	=20	=20	=20	=20	=20
.	F	2B-	4.f]	2d	16ff
.	F	.	.	.	16ee
I	B-	.	.	.	16ff
.	B-	.	.	.	16ee
.	B-	.	.	.	4ff
.	B-	.	8b-	.	.
.	B-	2c	4.a	2e-	8r
ivc	E-	.	.	.	8ff
.	E-	.	.	.	8ff
IVb	E-	.	8f	.	8aa
=21	=21	=21	=21	=21	=21
.	E-	4d	4B-	4f	16bb-
.	E-	.	.	.	16aa
.	E-	.	.	.	16bb-
.	E-	.	.	.	16aa
.	E-	4r	4r	4r	8bb-
Chr	A-	.	.	.	8ddd
.	A-	4e-	4B-	4b-	16gg
.	A-	.	.	.	16ff#
IV	E-	.	.	.	16gg
.	r	.	.	.	16ff#
.	E-	4r	4r	4r	8gg
.	E-	.	.	.	8bb-
=22	=22	=22	=22	=22	=22
.	E-	4E-	4e-	4g	16cc
.	E-	.	.	.	16b
iib	C	.	.	.	16cc
.	C	.	.	.	16b
.	C	2.r	2.r	2.r	16cc
.	C	.	.	.	16ee-
Chr	A-	.	.	.	16e-
.	A-	.	.	.	16ee-
.	A-	.	.	.	8e-
IV	E-	.	.	.	8gg
.	E-	.	.	.	8gg
.	E-	.	.	.	8gg
=23	=23	=23	=23	=23	=23
.	E-	4E-	4c	4g	16cc
.	E-	.	.	.	16b
V7b/VII	E-	.	.	.	16cc
.	r	.	.	.	16b
.	r	2.r	2.r	2.r	16cc
.	r	.	.	.	16ee-
.	r	.	.	.	16e-
.	r	.	.	.	16ee-
.	r	.	.	.	8e-
.	E-	.	.	.	8bb-
i	B-	.	.	.	8bb-
.	B-	.	.	.	8bb-
=24	=24	=24	=24	=24	=24
.	B-	1G	1B-	2.d-	[2G
I	B-	.	.	.	8G 8e]
Vc	F	.	.	.	8d-
Ib	B-	.	.	4B-	8c
IV	E-	.	.	.	8B-
=25	=25	=25	=25	=25	=25
Ic	B-	4F	4F	4c	8A 8f
IVb	E-	.	.	.	8g
Vb	F	2.r	2.r	2.r	8a
I	B-	.	.	.	8b-
Vc	F	.	.	.	8cc
Ib	B-	.	.	.	8dd
IV	E-	.	.	.	8ee-
V7d	F	.	.	.	8ff
=26	=26	=26	=26	=26	=26
.	F	2.r	2.r	2.r	8gg
Ib	B-	.	.	.	8aa
.	B-	.	.	.	8bb-
V	F	.	.	.	8ccc
vb	F	.	.	.	8ddd
iv	E-	.	.	.	8eee-
IV	E-	4E-	4f	8a	8ccc
Vb	F	.	.	8cc	8aa
=27	=27	=27	=27	=27	=27
I	B-	4D	4f	4b-	8bb-
V	F	.	.	.	8ddd
.	F	4r	4r	4r	8ff
Ib	B-	.	.	.	8aa-
IV	E-	4E-	4e-	4b-	8ff#
Ic	B-	.	.	.	8gg
.	B-	4r	4r	4r	8aa
V7c	F	.	.	.	8bb-
=28	=28	=28	=28	=28	=28
.	F	2..r	2..r	2r	8b
Ib	B-	.	.	.	8cc
.	r	.	.	.	8dd
ii	C	.	.	.	8ee-
I	B-	.	.	8r	8f
V7b	F	.	.	8dd	8ff
.	r	.	.	8cc	8ee-
Ib	B-	8F	8F	8a	8cc
=29	=29	=29	=29	=29	=29
V7	F	4d	4f	4b-	4b-
.	B-	8c	8e-	8r	8r
ii	C	8B-	8d	8f	8f
I	B-	4A	4c	4ee-	4gg
.	F	8r	8r	8dd	8ff
Ib	B-	8F	8F	8cc	8ee-
=30	=30	=30	=30	=30	=30
V7	F	4d	4f	4b-	4dd
.	B-	8c	8e-	8r	8r
Vb	F	8B-	8d	8f	8f
vi	G	4A	4c	4ee-	4gg
.	F	8r	8r	8dd	8ff
.	F	8F	8F	8cc	8ee-
=31	=31	=31	=31	=31	=31
.	F	4B-	4d	16b-	16dd
.	F	.	.	16cc	16ee-
.	F	.	.	16dd	16ff
.	r	.	.	16ee-	16gg
.	r	8A	8c	16ff	16aa
.	F	.	.	16gg	16bb-
.	r	8G	8B-	16aa	16ccc
.	r	.	.	16bb-	16ddd
.	r	16F	16A	2ccc	[2eee-
.	r	16G	16B-	.	.
V7b/vi	D	16A	16c	.	.
.	r	16B-	16d	.	.
.	r	16c	16e-	.	.
.	r	16d	16f	.	.
.	r	16e-	16g	.	.
.	r	16f	16a	.	.
=32	=32	=32	=32	=32	=32
.	r	2f	1a	1ccc	2eee-]
.	G	2f#	.	.	[2ddd
=33	=33	=33	=33	=33	=33
.	C	2g	1b-	2bb-	2ddd]
.	r	2e	.	2gg	2ddd-
=34	=34	=34	=34	=34	=34
.	r	2f	2a	2ee-	2ccc
.	r	2g	2b-	2dd	2bb-
=35	=35	=35	=35	=35	=35
.	B-	1d	2.f	[1b-	2.aa-
Chr	A-	.	4b-	.	4ff#
=36	=36	=36	=36	=36	=36
.	E-	4e-	4e-	4b-]	8gg
ic	B-	.	.	.	8ff#
.	B-	2.r	2.r	2.r	8gg
I	B-	.	.	.	8bb-
.	B-	.	.	.	8b
V	F	.	.	.	8cc
V7	F	.	.	.	8ee-
.	F	.	.	.	8gg
=37	=37	=37	=37	=37	=37
.	F	4F	16B-	16d	2f
.	F	.	16A	16c#	.
I	B-	.	16B-	16d	.
.	B-	.	16A	16c#	.
.	B-	4r	8B-	8d	.
.	B-	.	8d	8b-	.
.	r	4FF	8r	8r	2cc
V7b	F	.	8A	8e-	.
.	F	4r	8A	8e-	.
.	F	.	8A	8e-	.
=38	=38	=38	=38	=38	=38
.	F	16B-	4B-	4d	4b-
.	F	16A	.	.	.
I	B-	16B-	.	.	.
.	B-	16A	.	.	.
.	B-	4B-	4r	4r	4r
.	B-	8r	2cc	2a	2ee-
V7c	F	8F	.	.	.
.	F	8F	.	.	.
.	F	8B-	.	.	.
=39	=39	=39	=39	=39	=39
.	F	16B-	2b-	2b-	2dd
.	F	16A	.	.	.
I	B-	16B-	.	.	.
.	B-	16A	.	.	.
.	B-	4B-	.	.	.
.	B-	8r	2cc	2ee-	2aa
V7b	F	8F	.	.	.
.	F	8F	.	.	.
.	F	8B-	.	.	.
=40	=40	=40	=40	=40	=40
.	F	16B-	2b-	2dd	2bb-
.	r	16A	.	.	.
I	B-	16B-	.	.	.
.	B-	16A	.	.	.
.	B-	4B-	.	.	.
.	r	8r	2cc	2a	2ee-
V7c	F	8F	.	.	.
.	F	8F	.	.	.
.	F	8B-	.	.	.
=41	=41	=41	=41	=41	=41
.	F	16B-	2b-	2b-	2dd
.	F	16A	.	.	.
I	B-	16B-	.	.	.
.	B-	16A	.	.	.
.	B-	4B-	.	.	.
.	B-	8r	2c	2e-	2a
.	r	8FF	.	.	.
.	r	8FF	.	.	.
.	r	8BB-	.	.	.
=42	=42	=42	=42	=42	=42
.	B-	16BB-	4B-	4d	4b-
.	B-	16AA	.	.	.
.	B-	16BB-	.	.	.
.	B-	16AA	.	.	.
.	r	4BB-	2r	2r	2r
I	B-	4.r	.	.	.
.	F	.	8r	8r	8r
.	F	8r	8r	8d	8f
=43	=43	=43	=43	=43	=43
.	F	1r	2r	4dd	4ff
.	B-	.	.	8cc	8ee-
.	B-	.	.	8b-	8dd
.	B-	.	8r	2a	2cc
V7b/IV	F	.	8c	.	.
.	F	.	8c	.	.
.	F	.	8f	.	.
=44	=44	=44	=44	=44	=44
.	F	1r	16f	2b-	2dd
.	F	.	16e	.	.
IV	B-	.	16f	.	.
.	B-	.	16e	.	.
.	B-	.	4f	.	.
.	r	.	8r	2a	2ee-
Vc	C	.	8c	.	.
.	C	.	8c	.	.
.	C	.	8f	.	.
=45	=45	=45	=45	=45	=45
.	C	1r	16f	2b-	2dd
.	C	.	16e	.	.
I	F	.	16f	.	.
.	F	.	16e	.	.
.	F	.	4f	.	.
.	F	.	8r	2g	2ee
V7b	C	.	8c	.	.
.	C	.	8c	.	.
.	C	.	8f	.	.
=46	=46	=46	=46	=46	=46
IVc	B-	1r	16f	2a	2ff
.	B-	.	16e	.	.
I	F	.	16f	.	.
.	F	.	16e	.	.
.	F	.	4f	.	.
.	r	.	8r	2ee	2bb-
.	F	.	8c	.	.
.	F	.	8c	.	.
.	r	.	8f	.	.
=47	=47	=47	=47	=47	=47
.	F	1r	16f	4ff	4aa
.	r	.	16e	.	.
*Cm:	*Cm:	*	*	*	*
iv	F	.	16f	.	.
.	F	.	16e	.	.
ib	C	.	4f	2r	2r
i	C	.	2r	.	.
.	G	.	.	8r	8r
i	C	.	.	8f	8f
=48	=48	=48	=48	=48	=48
.	C	2..r	2..r	8ff	8aa-
.	C	.	.	8ee-	8gg
.	C	.	.	8dd	8ff
ii	D	.	.	8cc	8ee-
i	C	.	.	4b	4dd
.	G	.	.	4r	4r
ib	C	8G	8G	.	.
=49	=49	=49	=49	=49	=49
V7	G	4e-	4g	4.r	4.r
.	r	8d	8f	.	.
ii	D	8c	8e-	8g	8g
i	C	4B	4d	4ff	4aa-
.	r	8r	8r	8ee-	8gg
.	G	8G	8G	8dd	8ff
=50	=50	=50	=50	=50	=50
.	G	4e-	4g	4cc	4ee-
.	C	8d	8f	8r	8r
*Fm:	*Fm:	*	*	*	*
iv	B-	8c	8e-	8g	8g
v	C	4B	4d	4ff	4aa-
.	G	8r	8r	8ee-	8gg
v	C	8G	8G	8dd	8ff
=51	=51	=51	=51	=51	=51
v7b	C	4c	4e-	4cc	4ee-
.	F	8B-	8d-	8r	8r
ii	G	8A-	8c	8e-	8e-
i	F	4G	4B-	4dd-	4ff
.	C	8r	8r	8cc	8ee-
.	C	8E-	8E-	8b-	8dd-
=52	=52	=52	=52	=52	=52
.	C	4A-	4c	4a-	4cc
.	F	8G	8B-	8r	8r
Vb	C	8F	8A-	8c	8c
i	F	4E	4G	4b-	4dd-
.	r	8r	8r	8a-	8cc
Chr	D	8C	8C	8g	8b-
=53	=53	=53	=53	=53	=53
.	D	4F	4A-	4f	4a-
.	G	8E	8G	8r	8r
.	G	8F	8A-	8f	8a-
.	G	2FF	4F	4cc	4aa-
.	G	.	4d	4a-	8ff
.	G	.	.	.	8dd
=54	=54	=54	=54	=54	=54
.	G	8GG	2d	16g	2b
.	r	.	.	16f#	.
ivb	C	8GG	.	16g	.
.	C	.	.	16f#	.
.	C	8GG	.	8g	.
.	C	8GG	.	8r	.
.	C	8F	2B	16g	2dd
.	C	.	.	16f#	.
V7b/IV	G	8F	.	16g	.
.	G	.	.	16f#	.
.	G	8F	.	8g	.
.	G	8F	.	8r	.
=55	=55	=55	=55	=55	=55
.	G	8E-	2c	16g	2cc
.	G	.	.	16f#	.
iv	C	8E-	.	16g	.
.	C	.	.	16f#	.
.	C	8E-	.	8g	.
*E-:	*E-:	*	*	*	*
vi	C	8E-	.	8r	.
.	C	8BB	2d	16g	2ff
.	C	.	.	16f#	.
IVb	A-	8BB	.	16g	.
.	A-	.	.	16f#	.
.	A-	8BB	.	8g	.
.	A-	8BB	.	8r	.
=56	=56	=56	=56	=56	=56
.	A-	8C	1e-	16g	1ee-
.	A-	.	.	16f#	.
V7b	B-	8C	.	16g	.
.	B-	.	.	16f#	.
.	B-	8C	.	8g	.
.	B-	8C	.	8r	.
.	B-	8C	.	16a-	.
.	B-	.	.	16g	.
.	B-	8C	.	16a-	.
.	r	.	.	16g	.
.	B-	8C	.	8a-	.
.	B-	8C	.	8r	.
=57	=57	=57	=57	=57	=57
.	B-	1D	[1f	[1B- 1a-	8aa-
.	B-	.	.	.	8ff
.	B-	.	.	.	8dd
.	r	.	.	.	8b-
.	r	.	.	.	8a-
.	B-	.	.	.	8f
.	r	.	.	.	8d
.	B-	.	.	.	8B-
=58	=58	=58	=58	=58	=58
.	B-	4D	4f]	4B- 4a-]	4A-
.	E-	2.r	2.r	2r	2.r
.	B-	.	.	8r	.
.	B-	.	.	8B-	.
=59	=59	=59	=59	=59	=59
.	B-	8r	2r	4g	2r
Ib	E-	8E-	.	.	.
.	E-	8F	.	8f	.
.	E-	8G	.	8e-	.
.	E-	2A-	2B-	2d	8r
V7d	B-	.	.	.	8f
.	B-	.	.	.	8f
.	B-	.	.	.	8b-
=60	=60	=60	=60	=60	=60
.	B-	2G	4.B-	2e-	16b-
.	B-	.	.	.	16a
Ib	E-	.	.	.	16b-
.	E-	.	.	.	16a
.	E-	.	.	.	4b-
.	E-	.	8E-	.	.
.	E-	2A-	[2B-	2d	8r
.	E-	.	.	.	8f
.	E-	.	.	.	8f
.	E-	.	.	.	8b-
=61	=61	=61	=61	=61	=61
.	E-	4G	4B-]	4e-	16b-
.	r	.	.	.	16a
V7b/IV	E-	.	.	.	16b-
.	E-	.	.	.	16a
.	E-	2.r	2.r	2.r	16b-
.	E-	.	.	.	16ee-
*D-:	*D-:	*	*	*	*
vi	B-	.	.	.	16e-
.	B-	.	.	.	16ee-
Dim	B-	.	.	.	8e-
.	B-	.	.	.	8ee-
.	B-	.	.	.	8ee-
.	B-	.	.	.	8ee-
=62	=62	=62	=62	=62	=62
.	B-	4G	4d-	4e	16b-
.	B-	.	.	.	16a
Dim	F	.	.	.	16b-
.	F	.	.	.	16a
.	F	2.r	2.r	2.r	16b-
.	F	.	.	.	16dd-
iiic	F	.	.	.	16e
.	F	.	.	.	16dd-
.	F	.	.	.	8e
vic	B-	.	.	.	8dd-
.	B-	.	.	.	8dd-
.	B-	.	.	.	8dd-
=63	=63	=63	=63	=63	=63
.	B-	4A-	4f	4f	16cc
.	B-	.	.	.	16b
v7	A-	.	.	.	16cc
.	A-	.	.	.	16b
.	A-	2.r	2.r	2.r	16cc
.	A-	.	.	.	16ff
V7b	A-	.	.	.	16f
.	A-	.	.	.	16ff
iib	E-	.	.	.	8f
.	E-	.	.	.	8ff
.	E-	.	.	.	8ff
*Cm:	*Cm:	*	*	*	*
III	E-	.	.	.	8ff
=64	=64	=64	=64	=64	=64
.	E-	4A	4e-	4f#	16cc
.	E-	.	.	.	16b
Dim	G	.	.	.	16cc
.	G	.	.	.	16b
Dim	G	2.r	2.r	2.r	16cc
.	G	.	.	.	16ee-
vc	G	.	.	.	16f#
.	G	.	.	.	16ee-
.	G	.	.	.	8f#
.	G	.	.	.	8ee-
.	G	.	.	.	8ee-
.	G	.	.	.	8ee-
=65	=65	=65	=65	=65	=65
.	G	4B-	4g	4g	16dd
.	G	.	.	.	16cc#
Vb	G	.	.	.	16dd
.	G	.	.	.	16cc#
.	G	2.r	2.r	2.r	16dd
.	G	.	.	.	16gg
V7c	G	.	.	.	16g
.	G	.	.	.	16gg
.	G	.	.	.	8g
.	G	.	.	.	8gg
iv	F	.	.	.	8gg
.	F	.	.	.	8gg
=66	=66	=66	=66	=66	=66
.	F	4B	4g	4g	16dd
.	F	.	.	.	16cc#
i	C	.	.	.	16dd
.	C	.	.	.	16cc#
.	C	2.r	2.r	2.r	16dd
.	C	.	.	.	16ff
.	C	.	.	.	16g
.	C	.	.	.	16ff
.	C	.	.	.	8g
.	C	.	.	.	8ff
.	C	.	.	.	8ff
.	C	.	.	.	8ff
=67	=67	=67	=67	=67	=67
.	C	16c	1g	[1cc	[1ee-
.	C	16B	.	.	.
VI	A-	16c	.	.	.
.	r	16B	.	.	.
.	A-	8c	.	.	.
.	A-	8C	.	.	.
.	A-	8E-	.	.	.
.	A-	8G	.	.	.
.	A-	8c	.	.	.
.	A-	8G	.	.	.
=68	=68	=68	=68	=68	=68
.	A-	8A-	1a-	1cc_	1ee-]
*Gm:	*Gm:	*	*	*	*
V7b	D	8AA-	.	.	.
.	D	8C	.	.	.
VIIc	F	8E-	.	.	.
V7	D	8A-	.	.	.
.	D	8c	.	.	.
.	D	8AA-	.	.	.
.	D	8GG	.	.	.
=69	=69	=69	=69	=69	=69
.	D	8FF#	[1a	1cc_	[1dd
.	D	8AA	.	.	.
.	D	8C	.	.	.
.	r	8D	.	.	.
.	G	8F#	.	.	.
.	G	8A	.	.	.
.	r	8c	.	.	.
.	r	8d	.	.	.
=70	=70	=70	=70	=70	=70
.	G	4f#	4a]	4cc]	4dd]
.	G	2.r	2.r	2r	2.r
.	D	.	.	8r	.
.	D	.	.	8d	.
=71	=71	=71	=71	=71	=71
.	D	8r	2r	4b-	2r
i	G	8G	.	.	.
.	G	8A	.	8a	.
.	G	8B-	.	8g	.
.	G	2c	2d	2f#	8r
V7c	D	.	.	.	8a
i	G	.	.	.	8a
Vb	D	.	.	.	8dd
=72	=72	=72	=72	=72	=72
i	G	4.B-	4.G	4g	16dd
.	G	.	.	.	16cc#
V	D	.	.	.	16dd
.	D	.	.	.	16cc#
V7	D	.	.	2.r	8dd
.	D	8B-	8d	.	8g
i	G	8A	8c	.	8f#
Vb	D	8G	8B-	.	8g
i	G	8F#	8A	.	8a
Vc	D	8E	8G	.	8b-
=73	=73	=73	=73	=73	=73
ib	G	4D	4F#	1r	8dd
V	D	.	.	.	8cc
V7d	D	2.r	2.r	.	8aa
ii	A	.	.	.	8g
.	A	.	.	.	8f#
.	r	.	.	.	8g
.	r	.	.	.	8a
.	r	.	.	.	8b-
=74	=74	=74	=74	=74	=74
.	D	1r	1r	4r	8dd
ib	G	.	.	.	8cc
.	G	.	.	4aa	4ccc
ib	G	.	.	4.r	2r
.	D	.	.	8d	.
=75	=75	=75	=75	=75	=75
.	D	8r	2r	4b-	2r
ib	G	8G	.	.	.
.	G	8A	.	8a	.
.	G	8B-	.	8g	.
.	G	2c	2d	2f#	8r
V7d	D	.	.	.	8a
.	D	.	.	.	8a
.	D	.	.	.	8dd
=76	=76	=76	=76	=76	=76
.	D	2B-	4.d	2g	16dd
.	D	.	.	.	16cc#
ib	G	.	.	.	16dd
.	G	.	.	.	16cc#
.	G	.	.	.	4dd
.	G	.	8G	.	.
.	G	2c	2d	2f#	8r
V7b/IV	G	.	.	.	8a
.	G	.	.	.	8a
.	G	.	.	.	8dd
=77	=77	=77	=77	=77	=77
.	G	2B-	4.d	2g	16dd
.	G	.	.	.	16cc#
iv	C	.	.	.	16dd
.	C	.	.	.	16cc#
.	C	.	.	.	4dd
.	C	.	8g	.	.
.	C	2B	2g	2f	8r
V7b/IV	G	.	.	.	8dd
.	G	.	.	.	8dd
.	G	.	.	.	8gg
=78	=78	=78	=78	=78	=78
.	G	2c	4.g	2e-	16gg
.	G	.	.	.	16ff#
iv	C	.	.	.	16gg
.	C	.	.	.	16ff#
.	C	.	.	.	4gg
.	C	.	8c	.	.
.	C	2B	2g	2f	8r
.	r	.	.	.	8dd
.	r	.	.	.	8dd
.	C	.	.	.	8gg
=79	=79	=79	=79	=79	=79
III	B-	4c	4g	4e-	16gg
.	B-	.	.	.	16ff#
VI	E-	.	.	.	16gg
.	E-	.	.	.	16ff#
.	E-	2r	2r	2r	8gg
III	B-	.	.	.	2r
.	r	8r	8r	8r	.
VII	D-	8B-	8b-	8b-	8b-
=80	=80	=80	=80	=80	=80
.	D-	4e-	4ee-	4ee-	4ee-
.	r	8B-	8b-	8b-	8b-
.	r	8G	8g	8g	8g
.	r	4E-	4e-	4e-	4e-
.	r	4D-	4d-	4d-	4d-
=81	=81	=81	=81	=81	=81
.	E-	1C-	2c-	2c-	2c-
.	B-	.	4G-	2A	2e-
.	B-	.	8F	.	.
V7	B-	.	8E-	.	.
=82	=82	=82	=82	=82	=82
.	B-	2BB-	16F	2B-	2d
.	r	.	16E	.	.
*Gm:	*Gm:	*	*	*	*
Dim	C	.	16F	.	.
.	C	.	16E	.	.
Dim	C	.	4F	.	.
.	r	2BB	2A-	16d	2f
.	r	.	.	16c#	.
iv7	C	.	.	16d	.
.	C	.	.	16c#	.
.	C	.	.	4d	.
=83	=83	=83	=83	=83	=83
.	r	2C	16G	2c	2e-
.	r	.	16F#	.	.
Dim	D	.	16G	.	.
.	D	.	16F#	.	.
Dim	D	.	4G	.	.
.	D	2C#	2B-	16e	2g
.	D	.	.	16d#	.
V7	D	.	.	16e	.
.	D	.	.	16d#	.
.	D	.	.	4e	.
=84	=84	=84	=84	=84	=84
.	D	2.D	16A	2d	2f#
.	D	.	16G#	.	.
.	D	.	16A	.	.
.	D	.	16G#	.	.
.	D	.	4A	.	.
.	C	.	2c	16f#	2a
.	C	.	.	16e	.
.	C	.	.	16f#	.
.	r	.	.	16e	.
Vc	D	4r	.	4f#	.
=85	=85	=85	=85	=85	=85
ivb	C	4C	4e-	4f# 4a	16cc
.	C	.	.	.	16b
Dim	C	.	.	.	16cc
.	C	.	.	.	16b
.	C	2.r	2.r	2.r	16cc
.	C	.	.	.	16ee-
.	C	.	.	.	16e-
.	C	.	.	.	16ee-
.	C	.	.	.	8e-
.	C	.	.	.	8aa
.	C	.	.	.	8ff#
Vc	D	.	.	.	8ee-
=86	=86	=86	=86	=86	=86
.	D	4C	4e-	4f# 4a	16cc
.	D	.	.	.	16b
V7d	D	.	.	.	16cc
.	r	.	.	.	16b
.	r	2.r	2.r	2.r	16cc
.	r	.	.	.	16ee-
.	r	.	.	.	16e-
.	D	.	.	.	16ee-
.	D	.	.	.	8e-
.	r	.	.	.	8ccc
.	D	.	.	.	8aa
iv	C	.	.	.	8ff#
=87	=87	=87	=87	=87	=87
ib	G	[2C	[2A	[2f#	[2ee-
.	D	4C]	4A]	4f#]	8ee-]
.	D	.	.	.	8dd
.	D	4r	4r	4r	8cc
V7d	D	.	.	.	8b-
=88	=88	=88	=88	=88	=88
.	D	1r	1r	1r	8a
.	D	.	.	.	8cc
.	D	.	.	.	8ee-
.	D	.	.	.	8ff#
.	D	.	.	.	8aa
.	D	.	.	.	8bb-
.	D	.	.	.	8ccc
.	D	.	.	.	8ddd
=89	=89	=89	=89	=89	=89
.	D	2.r	2.r	2.r	8eee-
i	G	.	.	.	8aa
.	G	.	.	.	8ccc
.	G	.	.	.	8ff#
.	G	.	.	.	8aa
Vc	D	.	.	.	8ee-
iv	C	4F#	4d	4d	8dd
ib	G	.	.	.	8cc
=90	=90	=90	=90	=90	=90
V7	D	4G	4G	4d	8b-
ib	G	.	.	.	8ff#
.	G	2r	2r	4.r	8gg
ii	A	.	.	.	8b-
i	G	.	.	.	8a
V7b	D	.	.	8cc	8ee-
.	D	8r	8r	8b-	8dd
.	D	8D	8d	8c	8f#
=91	=91	=91	=91	=91	=91
.	D	4B-	4dd	4B-	4g
.	r	8A	8cc	8r	8r
ii	A	8G	8b-	8d	8d
i	G	4F#	4a	4cc	4ee-
.	r	8r	8r	8b-	8dd
.	D	8D	8d	8a	8cc
=92	=92	=92	=92	=92	=92
.	D	4B-	4dd	4g	4b-
.	G	8A	8cc	8r	8r
Vb	D	8G	8b-	8d	8d
ii7c	A	4F#	4a	4cc	4ee-
V7b	D	8r	8r	8b-	8dd
.	D	8D	8D	8a	8cc
=93	=93	=93	=93	=93	=93
.	D	4G	4B-	16g	16b-
.	D	.	.	16a	16cc
.	D	.	.	16b-	16dd
.	r	.	.	16cc	16ee
.	r	8F#	8A	16dd	16ff#
.	r	.	.	16ee	16gg
.	r	8E	8G	16ff#	16aa
.	r	.	.	16gg	16bb-
.	r	16D	16F#	[2aa	[2ccc
.	r	16E	16G	.	.
VI	E-	16F#	16A	.	.
.	r	16G	16B-	.	.
.	E-	16A	16c	.	.
.	r	16B-	16d	.	.
.	r	16c	16e-	.	.
.	r	16d	16f#	.	.
=94	=94	=94	=94	=94	=94
.	r	2d	2f#	2aa]	2ccc]
.	r	2e-	2g	2gg	2bb-
=95	=95	=95	=95	=95	=95
.	C	2c	2a-	2ee-	2aa-
ii	A	2c#	2b-	2ee	2gg
=96	=96	=96	=96	=96	=96
.	G	4d	4d	4d	8r
.	G	.	.	.	8ff#
.	G	2.r	2.r	2.r	8gg
.	G	.	.	.	8aa
.	G	.	.	.	8bb-
V	D	.	.	.	8gg
V7	D	.	.	.	8dd
.	D	.	.	.	8b-
=97	=97	=97	=97	=97	=97
.	D	4D	16G	16B-	2d
.	D	.	16F#	16A	.
i	G	.	16G	16B-	.
.	G	.	16F#	16A	.
.	G	4r	4G	8B-	.
.	G	.	.	8g	.
.	G	4DD	8r	8r	2a
V7b	D	.	8c	8f#	.
.	D	4r	8c	8f#	.
.	D	.	8c	8f#	.
=98	=98	=98	=98	=98	=98
.	D	16G	4B-	4g	4g
.	D	16F#	.	.	.
i	G	16G	.	.	.
.	G	16F#	.	.	.
.	G	4G	4r	4r	4r
.	G	8r	2a	2f#	2cc
V7c	D	8D	.	.	.
.	D	8D	.	.	.
.	D	8G	.	.	.
=99	=99	=99	=99	=99	=99
.	D	16G	2g	2g	2b-
.	D	16F#	.	.	.
i	G	16G	.	.	.
.	G	16F#	.	.	.
.	G	4G	.	.	.
.	G	8r	2a	2cc	2ff#
V7c/IV	G	8D	.	.	.
.	G	8D	.	.	.
.	G	8G	.	.	.
=100	=100	=100	=100	=100	=100
.	G	16G	2b-	2b-	2gg
.	G	16F#	.	.	.
iv	C	16G	.	.	.
.	C	16F#	.	.	.
.	C	4G	.	.	.
.	r	8r	2d	2f	2b
V7d	D	8D	.	.	.
.	D	8D	.	.	.
.	D	8G	.	.	.
=101	=101	=101	=101	=101	=101
ivc	C	16G	2g	2e-	2cc
.	C	16F#	.	.	.
i	G	16G	.	.	.
.	G	16F#	.	.	.
.	G	4G	.	.	.
.	G	8r	2e-	2c	2f#
V7b/IV	G	8D	.	.	.
.	G	8D	.	.	.
.	G	8G	.	.	.
=102	=102	=102	=102	=102	=102
.	G	16G	2d	2B-	2g
.	G	16F#	.	.	.
iv	C	16G	.	.	.
.	C	16F#	.	.	.
.	C	4G	.	.	.
.	C	8r	2B	2d	2f
V7b	D	8DD	.	.	.
.	D	8DD	.	.	.
.	D	8GG	.	.	.
=103	=103	=103	=103	=103	=103
.	D	16GG	2c	2c	2e-
.	r	16FF#	.	.	.
I	G	16GG	.	.	.
.	G	16FF#	.	.	.
.	G	4GG	.	.	.
.	G	8r	2F#	2A	2c
.	r	8DD	.	.	.
.	r	8DD	.	.	.
.	r	8GG	.	.	.
=104	=104	=104	=104	=104	=104
.	r	16GG	4G	4G	4B
.	r	16FF#	.	.	.
.	r	16GG	.	.	.
.	r	16FF#	.	.	.
.	r	4GG	2.r	2.r	2.r
.	r	2r	.	.	.
==	==	==	==	==	==
*-	*-	*-	*-	*-	*-
!!!RWG1: This file contains only pitch and duration data.
!!!RWG2: Transposing instruments are not transposed.
!!!RWG3: Spines may have incompatible meters.
!!!RWG4: Durations of rests and tied notes may be interpreted.
!!!RWG: Key is interpreted using the Humdrum key tool.
!!!GTL: 6 Divertimentos ("Sun")
!!!AFT: stage1
!!!END: 1997/04/15
!!!KEY: 2500174234
!!!EMD: Converted from MuseData to Humdrum Dec 16, 2000, by Andreas Kornstaedt using muse2kern.
!!!EMD: Manual editing by Craig Sapp, Nov 2001
